cssgg/arrows-shrink-v.svg

<svg
  width="24"
  height="24"
  viewBox="0 0 24 24"
  fill="none"
  xmlns="http://www.w3.org/2000/svg"
>
  <path d="M17 1V3L7 3V1L17 1Z" fill="currentColor" />
  <path
    d="M16.2427 8.44772L14.8285 9.86194L13 8.03347L13 15.9665L14.8285 14.138L16.2427 15.5522L12 19.7949L7.75742 15.5522L9.17163 14.138L11 15.9664L11 8.03357L9.17163 9.86194L7.75742 8.44772L12 4.20508L16.2427 8.44772Z"
    fill="currentColor"
  />
  <path d="M17 23V21H7V23H17Z" fill="currentColor" />
</svg>

<svg viewBox="0 0 24 24" xmlns="http://www.w3.org/2000/svg"><g><path d="M17 1v2H7V1h10Z"/><path d="M16.24 8.44l-1.42 1.41 -1.83-1.83v7.93l1.82-1.83 1.41 1.41 -4.25 4.24 -4.25-4.25 1.41-1.42 1.82 1.82V7.98L9.12 9.8 7.7 8.38l4.24-4.25 4.24 4.24Z"/><path d="M17 23v-2H7v2h10Z"/></g></svg>
